images/50511847.svg

<?xml version="1.0" encoding="UTF-8"?>
<svg xmlns="http://www.w3.org/2000/svg" xmlns:xlink="http://www.w3.org/1999/xlink" width="300pt" height="300pt" viewBox="0 0 300 300" version="1.1">
<defs>
<g>
<symbol overflow="visible" id="glyph0-0">
<path style="stroke:none;" d="M 0.546875 1.9375 L 0.546875 -7.75 L 6.046875 -7.75 L 6.046875 1.9375 Z M 1.171875 1.328125 L 5.4375 1.328125 L 5.4375 -7.140625 L 1.171875 -7.140625 Z M 1.171875 1.328125 "/>
</symbol>
<symbol overflow="visible" id="glyph0-1">
<path style="stroke:none;" d="M 5.890625 -7.75 L 5.890625 -6.703125 C 5.472656 -6.898438 5.082031 -7.046875 4.71875 -7.140625 C 4.351562 -7.234375 4 -7.28125 3.65625 -7.28125 C 3.070312 -7.28125 2.617188 -7.164062 2.296875 -6.9375 C 1.972656 -6.707031 1.8125 -6.382812 1.8125 -5.96875 C 1.8125 -5.613281 1.914062 -5.34375 2.125 -5.15625 C 2.34375 -4.976562 2.75 -4.832031 3.34375 -4.71875 L 4 -4.59375 C 4.8125 -4.4375 5.410156 -4.160156 5.796875 -3.765625 C 6.179688 -3.378906 6.375 -2.863281 6.375 -2.21875 C 6.375 -1.4375 6.113281 -0.84375 5.59375 -0.4375 C 5.070312 -0.0390625 4.304688 0.15625 3.296875 0.15625 C 2.921875 0.15625 2.515625 0.109375 2.078125 0.015625 C 1.648438 -0.0664062 1.207031 -0.191406 0.75 -0.359375 L 0.75 -1.46875 C 1.195312 -1.21875 1.628906 -1.03125 2.046875 -0.90625 C 2.472656 -0.78125 2.890625 -0.71875 3.296875 -0.71875 C 3.921875 -0.71875 4.398438 -0.835938 4.734375 -1.078125 C 5.066406 -1.328125 5.234375 -1.675781 5.234375 -2.125 C 5.234375 -2.519531 5.113281 -2.828125 4.875 -3.046875 C 4.632812 -3.273438 4.238281 -3.445312 3.6875 -3.5625 L 3.03125 -3.6875 C 2.21875 -3.84375 1.628906 -4.09375 1.265625 -4.4375 C 0.898438 -4.78125 0.71875 -5.257812 0.71875 -5.875 C 0.71875 -6.582031 0.96875 -7.140625 1.46875 -7.546875 C 1.96875 -7.960938 2.660156 -8.171875 3.546875 -8.171875 C 3.921875 -8.171875 4.300781 -8.132812 4.6875 -8.0625 C 5.082031 -7.988281 5.484375 -7.882812 5.890625 -7.75 Z M 5.890625 -7.75 "/>
</symbol>
<symbol overflow="visible" id="glyph0-2">
<path style="stroke:none;" d="M 1.078125 -8.015625 L 2.546875 -8.015625 L 6.09375 -1.3125 L 6.09375 -8.015625 L 7.15625 -8.015625 L 7.15625 0 L 5.6875 0 L 2.125 -6.703125 L 2.125 0 L 1.078125 0 Z M 1.078125 -8.015625 "/>
</symbol>
<symbol overflow="visible" id="glyph0-3">
<path style="stroke:none;" d="M 1.078125 -8.015625 L 2.171875 -8.015625 L 2.171875 -4.734375 L 6.109375 -4.734375 L 6.109375 -8.015625 L 7.1875 -8.015625 L 7.1875 0 L 6.109375 0 L 6.109375 -3.8125 L 2.171875 -3.8125 L 2.171875 0 L 1.078125 0 Z M 1.078125 -8.015625 "/>
</symbol>
</g>
</defs>
<g id="surface12633">
<rect x="0" y="0" width="300" height="300" style="fill:rgb(100%,100%,100%);fill-opacity:1;stroke:none;"/>
<path style="fill:none;stroke-width:1.2;stroke-linecap:butt;stroke-linejoin:miter;stroke:rgb(80%,80%,0%);stroke-opacity:1;stroke-miterlimit:10;" d="M 190.890625 170.253906 L 203.855469 169.902344 "/>
<path style="fill:none;stroke-width:1.2;stroke-linecap:butt;stroke-linejoin:miter;stroke:rgb(0%,0%,0%);stroke-opacity:1;stroke-miterlimit:10;" d="M 203.855469 169.902344 L 216.816406 169.546875 "/>
<path style="fill:none;stroke-width:1.2;stroke-linecap:butt;stroke-linejoin:miter;stroke:rgb(0%,0%,0%);stroke-opacity:1;stroke-miterlimit:10;" d="M 182.207031 145.816406 L 186.550781 158.035156 "/>
<path style="fill:none;stroke-width:1.2;stroke-linecap:butt;stroke-linejoin:miter;stroke:rgb(80%,80%,0%);stroke-opacity:1;stroke-miterlimit:10;" d="M 186.550781 158.035156 L 190.890625 170.253906 "/>
<path style=" stroke:none;fill-rule:nonzero;fill:rgb(100%,100%,100%);fill-opacity:1;" d="M 187.890625 163.753906 L 194.890625 163.753906 L 194.890625 176.753906 L 187.890625 176.753906 Z M 187.890625 163.753906 "/>
<g style="fill:rgb(80%,80%,0%);fill-opacity:1;">
  <use xlink:href="#glyph0-1" x="187.890625" y="173.655273"/>
</g>
<path style="fill:none;stroke-width:1.2;stroke-linecap:butt;stroke-linejoin:miter;stroke:rgb(0%,0%,0%);stroke-opacity:1;stroke-miterlimit:10;" d="M 216.816406 169.546875 L 220.488281 157.109375 "/>
<path style="fill:none;stroke-width:1.2;stroke-linecap:butt;stroke-linejoin:miter;stroke:rgb(0%,0%,100%);stroke-opacity:1;stroke-miterlimit:10;" d="M 220.488281 157.109375 L 224.15625 144.671875 "/>
<path style="fill:none;stroke-width:1.2;stroke-linecap:butt;stroke-linejoin:miter;stroke:rgb(0%,0%,100%);stroke-opacity:1;stroke-miterlimit:10;" d="M 238.207031 184.214844 L 227.511719 176.882812 "/>
<path style="fill:none;stroke-width:1.2;stroke-linecap:butt;stroke-linejoin:miter;stroke:rgb(0%,0%,0%);stroke-opacity:1;stroke-miterlimit:10;" d="M 227.511719 176.882812 L 216.816406 169.546875 "/>
<path style="fill:none;stroke-width:1.2;stroke-linecap:butt;stroke-linejoin:miter;stroke:rgb(0%,0%,100%);stroke-opacity:1;stroke-miterlimit:10;" d="M 239.519531 177.714844 L 230.964844 171.847656 "/>
<path style="fill:none;stroke-width:1.2;stroke-linecap:butt;stroke-linejoin:miter;stroke:rgb(0%,0%,0%);stroke-opacity:1;stroke-miterlimit:10;" d="M 230.964844 171.847656 L 222.40625 165.980469 "/>
<path style="fill:none;stroke-width:1.2;stroke-linecap:butt;stroke-linejoin:miter;stroke:rgb(0%,0%,100%);stroke-opacity:1;stroke-miterlimit:10;" d="M 224.15625 144.671875 L 202.765625 130.003906 "/>
<path style="fill:none;stroke-width:1.2;stroke-linecap:butt;stroke-linejoin:miter;stroke:rgb(0%,0%,100%);stroke-opacity:1;stroke-miterlimit:10;" d="M 224.15625 144.671875 L 237.121094 144.316406 "/>
<path style="fill:none;stroke-width:1.2;stroke-linecap:butt;stroke-linejoin:miter;stroke:rgb(0%,0%,0%);stroke-opacity:1;stroke-miterlimit:10;" d="M 237.121094 144.316406 L 250.082031 143.964844 "/>
<path style=" stroke:none;fill-rule:nonzero;fill:rgb(100%,100%,100%);fill-opacity:1;" d="M 220.15625 138.171875 L 228.15625 138.171875 L 228.15625 151.171875 L 220.15625 151.171875 Z M 220.15625 138.171875 "/>
<g style="fill:rgb(0%,0%,100%);fill-opacity:1;">
  <use xlink:href="#glyph0-2" x="220.15625" y="148.073242"/>
</g>
<path style="fill:none;stroke-width:1.2;stroke-linecap:butt;stroke-linejoin:miter;stroke:rgb(0%,0%,100%);stroke-opacity:1;stroke-miterlimit:10;" d="M 202.765625 130.003906 L 192.484375 137.910156 "/>
<path style="fill:none;stroke-width:1.2;stroke-linecap:butt;stroke-linejoin:miter;stroke:rgb(0%,0%,0%);stroke-opacity:1;stroke-miterlimit:10;" d="M 192.484375 137.910156 L 182.207031 145.816406 "/>
<path style="fill:none;stroke-width:1.2;stroke-linecap:butt;stroke-linejoin:miter;stroke:rgb(0%,0%,100%);stroke-opacity:1;stroke-miterlimit:10;" d="M 204.429688 136.421875 L 196.207031 142.746094 "/>
<path style="fill:none;stroke-width:1.2;stroke-linecap:butt;stroke-linejoin:miter;stroke:rgb(0%,0%,0%);stroke-opacity:1;stroke-miterlimit:10;" d="M 196.207031 142.746094 L 187.984375 149.074219 "/>
<path style=" stroke:none;fill-rule:nonzero;fill:rgb(100%,100%,100%);fill-opacity:1;" d="M 198.765625 123.503906 L 206.765625 123.503906 L 206.765625 136.503906 L 198.765625 136.503906 Z M 198.765625 123.503906 "/>
<g style="fill:rgb(0%,0%,100%);fill-opacity:1;">
  <use xlink:href="#glyph0-2" x="198.765625" y="133.405273"/>
</g>
<path style="fill:none;stroke-width:1.2;stroke-linecap:butt;stroke-linejoin:miter;stroke:rgb(0%,0%,0%);stroke-opacity:1;stroke-miterlimit:10;" d="M 182.207031 145.816406 L 157.332031 138.476562 "/>
<path style="fill:none;stroke-width:1.2;stroke-linecap:butt;stroke-linejoin:miter;stroke:rgb(0%,0%,0%);stroke-opacity:1;stroke-miterlimit:10;" d="M 157.332031 138.476562 L 138.535156 156.351562 "/>
<path style="fill:none;stroke-width:1.2;stroke-linecap:butt;stroke-linejoin:miter;stroke:rgb(0%,0%,0%);stroke-opacity:1;stroke-miterlimit:10;" d="M 138.535156 156.351562 L 140.242188 169.207031 "/>
<path style="fill:none;stroke-width:1.2;stroke-linecap:butt;stroke-linejoin:miter;stroke:rgb(0%,0%,100%);stroke-opacity:1;stroke-miterlimit:10;" d="M 140.242188 169.207031 L 141.949219 182.0625 "/>
<path style="fill:none;stroke-width:1.2;stroke-linecap:butt;stroke-linejoin:miter;stroke:rgb(0%,0%,0%);stroke-opacity:1;stroke-miterlimit:10;" d="M 113.03125 151.652344 L 138.535156 156.351562 "/>
<path style="fill:none;stroke-width:1.2;stroke-linecap:butt;stroke-linejoin:miter;stroke:rgb(0%,0%,0%);stroke-opacity:1;stroke-miterlimit:10;" d="M 114.476562 158.125 L 134.878906 161.882812 "/>
<path style="fill:none;stroke-width:1.2;stroke-linecap:butt;stroke-linejoin:miter;stroke:rgb(0%,0%,100%);stroke-opacity:1;stroke-miterlimit:10;" d="M 141.949219 182.0625 L 118.554688 193.253906 "/>
<path style=" stroke:none;fill-rule:nonzero;fill:rgb(100%,100%,100%);fill-opacity:1;" d="M 133.949219 175.5625 L 150.949219 175.5625 L 150.949219 188.5625 L 133.949219 188.5625 Z M 133.949219 175.5625 "/>
<g style="fill:rgb(0%,0%,100%);fill-opacity:1;">
  <use xlink:href="#glyph0-2" x="133.949219" y="185.463867"/>
  <use xlink:href="#glyph0-3" x="141.932617" y="185.463867"/>
</g>
<path style="fill:none;stroke-width:1.2;stroke-linecap:butt;stroke-linejoin:miter;stroke:rgb(0%,0%,100%);stroke-opacity:1;stroke-miterlimit:10;" d="M 118.554688 193.253906 L 109.617188 183.855469 "/>
<path style="fill:none;stroke-width:1.2;stroke-linecap:butt;stroke-linejoin:miter;stroke:rgb(0%,0%,0%);stroke-opacity:1;stroke-miterlimit:10;" d="M 109.617188 183.855469 L 100.679688 174.460938 "/>
<path style="fill:none;stroke-width:1.2;stroke-linecap:butt;stroke-linejoin:miter;stroke:rgb(0%,0%,100%);stroke-opacity:1;stroke-miterlimit:10;" d="M 121.1875 187.167969 L 114.039062 179.652344 "/>
<path style="fill:none;stroke-width:1.2;stroke-linecap:butt;stroke-linejoin:miter;stroke:rgb(0%,0%,0%);stroke-opacity:1;stroke-miterlimit:10;" d="M 114.039062 179.652344 L 106.886719 172.132812 "/>
<path style=" stroke:none;fill-rule:nonzero;fill:rgb(100%,100%,100%);fill-opacity:1;" d="M 114.554688 186.753906 L 122.554688 186.753906 L 122.554688 199.753906 L 114.554688 199.753906 Z M 114.554688 186.753906 "/>
<g style="fill:rgb(0%,0%,100%);fill-opacity:1;">
  <use xlink:href="#glyph0-2" x="114.554688" y="196.655273"/>
</g>
<path style="fill:none;stroke-width:1.2;stroke-linecap:butt;stroke-linejoin:miter;stroke:rgb(0%,0%,0%);stroke-opacity:1;stroke-miterlimit:10;" d="M 100.679688 174.460938 L 87.714844 174.8125 "/>
<path style="fill:none;stroke-width:1.2;stroke-linecap:butt;stroke-linejoin:miter;stroke:rgb(0%,0%,100%);stroke-opacity:1;stroke-miterlimit:10;" d="M 87.714844 174.8125 L 74.753906 175.167969 "/>
<path style="fill:none;stroke-width:1.2;stroke-linecap:butt;stroke-linejoin:miter;stroke:rgb(0%,0%,0%);stroke-opacity:1;stroke-miterlimit:10;" d="M 113.03125 151.652344 L 100.679688 174.460938 "/>
<path style="fill:none;stroke-width:1.2;stroke-linecap:butt;stroke-linejoin:miter;stroke:rgb(0%,0%,100%);stroke-opacity:1;stroke-miterlimit:10;" d="M 74.753906 175.167969 L 67.964844 164.117188 "/>
<path style="fill:none;stroke-width:1.2;stroke-linecap:butt;stroke-linejoin:miter;stroke:rgb(0%,0%,0%);stroke-opacity:1;stroke-miterlimit:10;" d="M 67.964844 164.117188 L 61.175781 153.066406 "/>
<path style=" stroke:none;fill-rule:nonzero;fill:rgb(100%,100%,100%);fill-opacity:1;" d="M 66.753906 168.667969 L 83.753906 168.667969 L 83.753906 181.667969 L 66.753906 181.667969 Z M 66.753906 168.667969 "/>
<g style="fill:rgb(0%,0%,100%);fill-opacity:1;">
  <use xlink:href="#glyph0-2" x="66.753906" y="178.569336"/>
  <use xlink:href="#glyph0-3" x="74.737305" y="178.569336"/>
</g>
<path style="fill:none;stroke-width:1.2;stroke-linecap:butt;stroke-linejoin:miter;stroke:rgb(0%,0%,0%);stroke-opacity:1;stroke-miterlimit:10;" d="M 61.09375 150.015625 L 48.128906 150.371094 "/>
<path style="fill:none;stroke-width:1.2;stroke-linecap:butt;stroke-linejoin:miter;stroke:rgb(80%,80%,0%);stroke-opacity:1;stroke-miterlimit:10;" d="M 48.128906 150.371094 L 35.167969 150.726562 "/>
<path style="fill:none;stroke-width:1.2;stroke-linecap:butt;stroke-linejoin:miter;stroke:rgb(0%,0%,0%);stroke-opacity:1;stroke-miterlimit:10;" d="M 61.257812 156.117188 L 48.296875 156.472656 "/>
<path style="fill:none;stroke-width:1.2;stroke-linecap:butt;stroke-linejoin:miter;stroke:rgb(80%,80%,0%);stroke-opacity:1;stroke-miterlimit:10;" d="M 48.296875 156.472656 L 35.332031 156.824219 "/>
<path style="fill:none;stroke-width:1.2;stroke-linecap:butt;stroke-linejoin:miter;stroke:rgb(0%,0%,0%);stroke-opacity:1;stroke-miterlimit:10;" d="M 61.175781 153.066406 L 67.351562 141.664062 "/>
<path style="fill:none;stroke-width:1.2;stroke-linecap:butt;stroke-linejoin:miter;stroke:rgb(0%,0%,100%);stroke-opacity:1;stroke-miterlimit:10;" d="M 67.351562 141.664062 L 73.527344 130.261719 "/>
<path style=" stroke:none;fill-rule:nonzero;fill:rgb(100%,100%,100%);fill-opacity:1;" d="M 28.25 147.273438 L 35.25 147.273438 L 35.25 160.273438 L 28.25 160.273438 Z M 28.25 147.273438 "/>
<g style="fill:rgb(80%,80%,0%);fill-opacity:1;">
  <use xlink:href="#glyph0-1" x="28.25" y="157.174805"/>
</g>
<path style="fill:none;stroke-width:1.2;stroke-linecap:butt;stroke-linejoin:miter;stroke:rgb(0%,0%,100%);stroke-opacity:1;stroke-miterlimit:10;" d="M 73.527344 130.261719 L 86.492188 129.90625 "/>
<path style="fill:none;stroke-width:1.2;stroke-linecap:butt;stroke-linejoin:miter;stroke:rgb(0%,0%,0%);stroke-opacity:1;stroke-miterlimit:10;" d="M 86.492188 129.90625 L 99.453125 129.554688 "/>
<path style=" stroke:none;fill-rule:nonzero;fill:rgb(100%,100%,100%);fill-opacity:1;" d="M 65.527344 123.761719 L 82.527344 123.761719 L 82.527344 136.761719 L 65.527344 136.761719 Z M 65.527344 123.761719 "/>
<g style="fill:rgb(0%,0%,100%);fill-opacity:1;">
  <use xlink:href="#glyph0-2" x="65.527344" y="133.663086"/>
  <use xlink:href="#glyph0-3" x="73.510742" y="133.663086"/>
</g>
<path style="fill:none;stroke-width:1.2;stroke-linecap:butt;stroke-linejoin:miter;stroke:rgb(0%,0%,0%);stroke-opacity:1;stroke-miterlimit:10;" d="M 102.136719 131.007812 L 108.3125 119.601562 "/>
<path style="fill:none;stroke-width:1.2;stroke-linecap:butt;stroke-linejoin:miter;stroke:rgb(80%,80%,0%);stroke-opacity:1;stroke-miterlimit:10;" d="M 108.3125 119.601562 L 114.488281 108.199219 "/>
<path style="fill:none;stroke-width:1.2;stroke-linecap:butt;stroke-linejoin:miter;stroke:rgb(0%,0%,0%);stroke-opacity:1;stroke-miterlimit:10;" d="M 96.769531 128.101562 L 102.945312 116.695312 "/>
<path style="fill:none;stroke-width:1.2;stroke-linecap:butt;stroke-linejoin:miter;stroke:rgb(80%,80%,0%);stroke-opacity:1;stroke-miterlimit:10;" d="M 102.945312 116.695312 L 109.121094 105.292969 "/>
<path style="fill:none;stroke-width:1.2;stroke-linecap:butt;stroke-linejoin:miter;stroke:rgb(0%,0%,0%);stroke-opacity:1;stroke-miterlimit:10;" d="M 99.453125 129.554688 L 113.03125 151.652344 "/>
<path style=" stroke:none;fill-rule:nonzero;fill:rgb(100%,100%,100%);fill-opacity:1;" d="M 108.804688 100.246094 L 115.804688 100.246094 L 115.804688 113.246094 L 108.804688 113.246094 Z M 108.804688 100.246094 "/>
<g style="fill:rgb(80%,80%,0%);fill-opacity:1;">
  <use xlink:href="#glyph0-1" x="108.804688" y="110.147461"/>
</g>
<path style="fill:none;stroke-width:1.2;stroke-linecap:butt;stroke-linejoin:miter;stroke:rgb(0%,0%,0%);stroke-opacity:1;stroke-miterlimit:10;" d="M 250.082031 143.964844 L 254.425781 156.183594 "/>
<path style="fill:none;stroke-width:1.2;stroke-linecap:butt;stroke-linejoin:miter;stroke:rgb(0%,0%,100%);stroke-opacity:1;stroke-miterlimit:10;" d="M 254.425781 156.183594 L 258.769531 168.402344 "/>
<path style="fill:none;stroke-width:1.2;stroke-linecap:butt;stroke-linejoin:miter;stroke:rgb(0%,0%,0%);stroke-opacity:1;stroke-miterlimit:10;" d="M 245.203125 148.449219 L 248.675781 158.226562 "/>
<path style="fill:none;stroke-width:1.2;stroke-linecap:butt;stroke-linejoin:miter;stroke:rgb(0%,0%,100%);stroke-opacity:1;stroke-miterlimit:10;" d="M 248.675781 158.226562 L 252.148438 168.003906 "/>
<path style="fill:none;stroke-width:1.2;stroke-linecap:butt;stroke-linejoin:miter;stroke:rgb(0%,0%,0%);stroke-opacity:1;stroke-miterlimit:10;" d="M 250.082031 143.964844 L 264.75 122.574219 "/>
<path style="fill:none;stroke-width:1.2;stroke-linecap:butt;stroke-linejoin:miter;stroke:rgb(0%,0%,100%);stroke-opacity:1;stroke-miterlimit:10;" d="M 258.769531 168.402344 L 238.207031 184.214844 "/>
<path style=" stroke:none;fill-rule:nonzero;fill:rgb(100%,100%,100%);fill-opacity:1;" d="M 254.769531 161.902344 L 262.769531 161.902344 L 262.769531 174.902344 L 254.769531 174.902344 Z M 254.769531 161.902344 "/>
<g style="fill:rgb(0%,0%,100%);fill-opacity:1;">
  <use xlink:href="#glyph0-2" x="254.769531" y="171.803711"/>
</g>
<path style=" stroke:none;fill-rule:nonzero;fill:rgb(100%,100%,100%);fill-opacity:1;" d="M 234.207031 177.714844 L 242.207031 177.714844 L 242.207031 190.714844 L 234.207031 190.714844 Z M 234.207031 177.714844 "/>
<g style="fill:rgb(0%,0%,100%);fill-opacity:1;">
  <use xlink:href="#glyph0-2" x="234.207031" y="187.616211"/>
</g>
</g>
</svg>

<svg xmlns="http://www.w3.org/2000/svg" xmlns:xlink="http://www.w3.org/1999/xlink" width="300pt" height="300pt" viewBox="0 0 300 300"><defs><symbol overflow="visible"><path d="M.547 1.938V-7.75h5.5v9.688zm.625-.61h4.266v-8.47H1.171zm0 0"/></symbol><symbol overflow="visible" id="a"><path d="M5.89-7.75v1.047c-.417-.195-.808-.344-1.17-.438-.368-.094-.72-.14-1.064-.14-.586 0-1.04.116-1.36.343-.323.23-.483.554-.483.968 0 .357.1.626.312.814.22.18.625.324 1.22.437L4-4.593c.813.157 1.41.434 1.797.828.383.387.578.903.578 1.547 0 .783-.262 1.376-.78 1.783-.525.398-1.29.593-2.298.593-.375 0-.78-.047-1.22-.14C1.648-.066 1.208-.19.75-.36v-1.11c.445.25.88.44 1.297.564.426.125.844.187 1.25.187.625 0 1.1-.116 1.437-.358.332-.25.5-.598.5-1.047 0-.395-.12-.703-.36-.922-.24-.226-.636-.398-1.186-.515l-.657-.126c-.81-.156-1.4-.406-1.764-.75C.898-4.78.72-5.258.72-5.875c0-.707.25-1.266.75-1.672.5-.414 1.19-.625 2.077-.625.375 0 .754.04 1.14.11.395.074.797.18 1.204.312zm0 0"/></symbol><symbol overflow="visible" id="b"><path d="M1.078-8.016h1.47l3.546 6.704v-6.704h1.062V0H5.688L2.124-6.703V0H1.078zm0 0"/></symbol><symbol overflow="visible" id="c"><path d="M1.078-8.016h1.094v3.282H6.11v-3.282h1.077V0H6.11v-3.813H2.17V0H1.078zm0 0"/></symbol></defs><g><path fill="#fff" d="M0 0h300v300H0z"/><path d="M190.89 170.254l12.965-.352" stroke-width="1.2" stroke="#cc0" stroke-miterlimit="10" fill="none"/><path d="M203.855 169.902l12.96-.355M182.207 145.816l4.344 12.22" stroke-width="1.2" stroke="#000" stroke-miterlimit="10" fill="none"/><path d="M186.55 158.035l4.34 12.22" stroke-width="1.2" stroke="#cc0" stroke-miterlimit="10" fill="none"/><path d="M187.89 163.754h7v13h-7zm0 0" fill="#fff"/><use xlink:href="#a" x="187.891" y="173.655" fill="#cc0"/><path d="M216.816 169.547l3.672-12.438" stroke-width="1.2" stroke="#000" stroke-miterlimit="10" fill="none"/><path d="M220.488 157.11l3.668-12.438M238.207 184.215l-10.695-7.332" stroke-width="1.2" stroke="#00f" stroke-miterlimit="10" fill="none"/><path d="M227.512 176.883l-10.696-7.336" stroke-width="1.2" stroke="#000" stroke-miterlimit="10" fill="none"/><path d="M239.52 177.715l-8.555-5.867" stroke-width="1.2" stroke="#00f" stroke-miterlimit="10" fill="none"/><path d="M230.965 171.848l-8.56-5.868" stroke-width="1.2" stroke="#000" stroke-miterlimit="10" fill="none"/><path d="M224.156 144.672l-21.39-14.668M224.156 144.672l12.965-.356" stroke-width="1.2" stroke="#00f" stroke-miterlimit="10" fill="none"/><path d="M237.12 144.316l12.962-.35" stroke-width="1.2" stroke="#000" stroke-miterlimit="10" fill="none"/><path d="M220.156 138.172h8v13h-8zm0 0" fill="#fff"/><use xlink:href="#b" x="220.156" y="148.073" fill="#00f"/><path d="M202.766 130.004l-10.282 7.906" stroke-width="1.2" stroke="#00f" stroke-miterlimit="10" fill="none"/><path d="M192.484 137.91l-10.277 7.906" stroke-width="1.2" stroke="#000" stroke-miterlimit="10" fill="none"/><path d="M204.43 136.422l-8.223 6.324" stroke-width="1.2" stroke="#00f" stroke-miterlimit="10" fill="none"/><path d="M196.207 142.746l-8.223 6.328" stroke-width="1.2" stroke="#000" stroke-miterlimit="10" fill="none"/><path d="M198.766 123.504h8v13h-8zm0 0" fill="#fff"/><use xlink:href="#b" x="198.766" y="133.405" fill="#00f"/><path d="M182.207 145.816l-24.875-7.34M157.332 138.477l-18.797 17.875M138.535 156.352l1.707 12.855" stroke-width="1.2" stroke="#000" stroke-miterlimit="10" fill="none"/><path d="M140.242 169.207l1.707 12.856" stroke-width="1.2" stroke="#00f" stroke-miterlimit="10" fill="none"/><path d="M113.03 151.652l25.505 4.7M114.477 158.125l20.402 3.758" stroke-width="1.2" stroke="#000" stroke-miterlimit="10" fill="none"/><path d="M141.95 182.063l-23.395 11.19" stroke-width="1.2" stroke="#00f" stroke-miterlimit="10" fill="none"/><path d="M133.95 175.563h17v13h-17zm0 0" fill="#fff"/><g fill="#00f"><use xlink:href="#b" x="133.949" y="185.464"/><use xlink:href="#c" x="141.933" y="185.464"/></g><path d="M118.555 193.254l-8.938-9.4" stroke-width="1.2" stroke="#00f" stroke-miterlimit="10" fill="none"/><path d="M109.617 183.855l-8.937-9.394" stroke-width="1.2" stroke="#000" stroke-miterlimit="10" fill="none"/><path d="M121.188 187.168l-7.15-7.516" stroke-width="1.2" stroke="#00f" stroke-miterlimit="10" fill="none"/><path d="M114.04 179.652l-7.153-7.52" stroke-width="1.2" stroke="#000" stroke-miterlimit="10" fill="none"/><path d="M114.555 186.754h8v13h-8zm0 0" fill="#fff"/><use xlink:href="#b" x="114.555" y="196.655" fill="#00f"/><path d="M100.68 174.46l-12.965.352" stroke-width="1.2" stroke="#000" stroke-miterlimit="10" fill="none"/><path d="M87.715 174.813l-12.96.355" stroke-width="1.2" stroke="#00f" stroke-miterlimit="10" fill="none"/><path d="M113.03 151.652l-12.35 22.81" stroke-width="1.2" stroke="#000" stroke-miterlimit="10" fill="none"/><path d="M74.754 175.168l-6.79-11.05" stroke-width="1.2" stroke="#00f" stroke-miterlimit="10" fill="none"/><path d="M67.965 164.117l-6.79-11.05" stroke-width="1.2" stroke="#000" stroke-miterlimit="10" fill="none"/><path d="M66.754 168.668h17v13h-17zm0 0" fill="#fff"/><g fill="#00f"><use xlink:href="#b" x="66.754" y="178.569"/><use xlink:href="#c" x="74.737" y="178.569"/></g><path d="M61.094 150.016l-12.965.355" stroke-width="1.2" stroke="#000" stroke-miterlimit="10" fill="none"/><path d="M48.13 150.37l-12.962.357" stroke-width="1.2" stroke="#cc0" stroke-miterlimit="10" fill="none"/><path d="M61.258 156.117l-12.96.356" stroke-width="1.2" stroke="#000" stroke-miterlimit="10" fill="none"/><path d="M48.297 156.473l-12.965.35" stroke-width="1.2" stroke="#cc0" stroke-miterlimit="10" fill="none"/><path d="M61.176 153.066l6.176-11.402" stroke-width="1.2" stroke="#000" stroke-miterlimit="10" fill="none"/><path d="M67.352 141.664l6.175-11.402" stroke-width="1.2" stroke="#00f" stroke-miterlimit="10" fill="none"/><path d="M28.25 147.273h7v13h-7zm0 0" fill="#fff"/><use xlink:href="#a" x="28.25" y="157.175" fill="#cc0"/><path d="M73.527 130.262l12.965-.356" stroke-width="1.2" stroke="#00f" stroke-miterlimit="10" fill="none"/><path d="M86.492 129.906l12.96-.35" stroke-width="1.2" stroke="#000" stroke-miterlimit="10" fill="none"/><path d="M65.527 123.762h17v13h-17zm0 0" fill="#fff"/><g fill="#00f"><use xlink:href="#b" x="65.527" y="133.663"/><use xlink:href="#c" x="73.511" y="133.663"/></g><path d="M102.137 131.008l6.175-11.406" stroke-width="1.2" stroke="#000" stroke-miterlimit="10" fill="none"/><path d="M108.313 119.602l6.175-11.403" stroke-width="1.2" stroke="#cc0" stroke-miterlimit="10" fill="none"/><path d="M96.77 128.102l6.175-11.407" stroke-width="1.2" stroke="#000" stroke-miterlimit="10" fill="none"/><path d="M102.945 116.695l6.176-11.402" stroke-width="1.2" stroke="#cc0" stroke-miterlimit="10" fill="none"/><path d="M99.453 129.555l13.578 22.097" stroke-width="1.2" stroke="#000" stroke-miterlimit="10" fill="none"/><path d="M108.805 100.246h7v13h-7zm0 0" fill="#fff"/><use xlink:href="#a" x="108.805" y="110.147" fill="#cc0"/><path d="M250.082 143.965l4.344 12.22" stroke-width="1.2" stroke="#000" stroke-miterlimit="10" fill="none"/><path d="M254.426 156.184l4.344 12.218" stroke-width="1.2" stroke="#00f" stroke-miterlimit="10" fill="none"/><path d="M245.203 148.45l3.473 9.777" stroke-width="1.2" stroke="#000" stroke-miterlimit="10" fill="none"/><path d="M248.676 158.227l3.472 9.777" stroke-width="1.2" stroke="#00f" stroke-miterlimit="10" fill="none"/><path d="M250.082 143.965l14.668-21.39" stroke-width="1.2" stroke="#000" stroke-miterlimit="10" fill="none"/><path d="M258.77 168.402l-20.563 15.813" stroke-width="1.2" stroke="#00f" stroke-miterlimit="10" fill="none"/><path d="M254.77 161.902h8v13h-8zm0 0" fill="#fff"/><use xlink:href="#b" x="254.77" y="171.804" fill="#00f"/><path d="M234.207 177.715h8v13h-8zm0 0" fill="#fff"/><use xlink:href="#b" x="234.207" y="187.616" fill="#00f"/></g></svg>
